icons/1_Primary/Sony.svg

<svg width="1024" height="1024" viewBox="0 0 1024 1024" fill="none" xmlns="http://www.w3.org/2000/svg">
<g clip-path="url(#clip0_2_3501)">
<path d="M512 1024C794.77 1024 1024 794.77 1024 512C1024 229.23 794.77 0 512 0C229.23 0 0 229.23 0 512C0 794.77 229.23 1024 512 1024Z" fill="#56595B"/>
<path d="M482.87 473.5C467.07 459.14 446.41 452.63 420.6 452.63C397.27 452.63 372.49 460.63 358.46 473.47C353.121 478.344 348.86 484.281 345.949 490.899C343.039 497.517 341.544 504.67 341.56 511.9C341.477 519.159 342.942 526.352 345.856 533.001C348.77 539.65 353.067 545.601 358.46 550.46C373.57 564.05 396.21 571.38 420.6 571.38C444.99 571.38 468.17 564.14 482.87 550.46C488.106 545.489 492.282 539.511 495.147 532.884C498.012 526.257 499.506 519.119 499.54 511.9C499.616 504.687 498.17 497.54 495.298 490.923C492.426 484.307 488.191 478.37 482.87 473.5ZM453.93 542.88C445.54 551.24 433.54 555.72 420.59 555.72C407.74 555.72 395.49 551.14 387.2 542.88C379.27 534.98 375.02 523.78 375.02 511.88C375.02 499.98 379.22 488.76 387.2 480.88C395.48 472.67 407.78 468.12 420.59 468.12C433.4 468.12 445.65 472.71 453.93 480.88C461.93 488.8 466.14 499.97 466.14 511.88C466.15 524.37 462.27 534.57 453.94 542.88H453.93ZM242.35 452.68C229.35 452.68 214.48 455.12 201.89 460.76C190.27 465.96 180.75 474.36 180.75 488.29C180.715 495.608 183.484 502.662 188.49 508C191.88 511.12 197.32 516.44 211.57 519.56C217.94 520.96 231.57 523.1 245.11 524.56C258.65 526.02 271.81 527.33 277.2 528.7C281.49 529.79 288.68 531.28 288.68 539.37C288.68 547.46 281.1 549.89 279.78 550.42C278.46 550.95 269.36 555.12 253.01 555.12C240.93 555.12 226.42 551.48 221.13 549.59C215.03 547.41 208.63 544.54 202.66 537.23C200.255 533.787 198.922 529.709 198.83 525.51H184V567H200.45V561.39C200.453 560.975 200.565 560.568 200.776 560.211C200.986 559.854 201.288 559.559 201.649 559.356C202.011 559.152 202.42 559.049 202.834 559.055C203.249 559.061 203.655 559.176 204.01 559.39C211.761 562.765 219.822 565.374 228.08 567.18C236.73 568.99 242.3 570.29 253.08 570.29C270.62 570.29 280.08 567.43 286.56 565.56C293.754 563.577 300.502 560.237 306.44 555.72C309.785 553.146 312.488 549.831 314.336 546.037C316.184 542.242 317.127 538.07 317.09 533.85C317.148 525.829 314.057 518.105 308.48 512.34C305.372 509.324 301.766 506.867 297.82 505.08C293.601 503.169 289.221 501.636 284.73 500.5C276.25 498.41 257.07 495.84 247.9 494.88C238.28 493.88 221.6 492.49 214.9 490.42C212.9 489.79 208.76 487.83 208.76 483.04C208.76 479.63 210.64 476.75 214.37 474.41C220.28 470.7 232.21 468.41 244.65 468.41C259.36 468.36 271.81 471.72 279.73 475.27C282.714 476.577 285.52 478.257 288.08 480.27C292.267 483.82 295.179 488.641 296.37 494H309.66V457.87H294.82V462.07C294.82 463.43 293.42 465.19 290.82 463.73C284.18 460.24 265.4 452.73 242.39 452.68M567.57 459.25L639.95 524.7L639.21 480.64C639.14 474.86 638.07 472.45 631.84 472.45H618.18V459.27H680.07V472.45H666.8C660.44 472.45 660.04 474.45 659.96 480.64L661.08 564.83H639.88L556.51 490.28V543.19C556.58 548.94 556.85 551.65 562.77 551.65H577.63V564.83H516.87V551.65H531.08C536.39 551.65 536.18 546.58 536.18 542.89V481.14C536.18 477.14 535.62 472.46 527.29 472.46H515.75V459.26L567.57 459.25ZM750.8 551.63C752.024 551.632 753.247 551.555 754.46 551.4C755.09 551.21 755.672 550.885 756.164 550.448C756.656 550.012 757.047 549.473 757.31 548.87C757.496 547.931 757.59 546.977 757.59 546.02V525.18C757.59 524.68 757.59 524.46 756.7 523.35C755.81 522.24 718.79 480.14 717.09 478.3C714.99 476 711.3 472.46 705.69 472.46H692.85V459.26H765.43V472.43H756.68C754.68 472.43 753.31 474.35 755.04 476.49C755.04 476.49 779.46 505.75 779.69 506.06C779.92 506.37 780.11 506.45 780.42 506.16C780.73 505.87 805.42 476.76 805.65 476.53C805.946 476.144 806.124 475.681 806.165 475.197C806.205 474.713 806.106 474.227 805.878 473.797C805.651 473.368 805.305 473.013 804.882 472.774C804.459 472.535 803.976 472.422 803.49 472.45H794.49V459.26H854V472.45H840.71C835.89 472.45 833.93 473.34 830.3 477.45C828.64 479.33 791.3 522.07 790.25 523.23C789.84 523.811 789.665 524.525 789.76 525.23V546C789.761 546.957 789.854 547.911 790.04 548.85C790.303 549.453 790.694 549.992 791.186 550.429C791.679 550.866 792.26 551.191 792.89 551.38C794.094 551.536 795.307 551.613 796.52 551.61H810.11V564.8H737.91V551.61H750.8V551.63Z" fill="white"/>
</g>
<defs>
<clipPath id="clip0_2_3501">
<rect width="1024" height="1024" fill="white"/>
</clipPath>
</defs>
</svg>

<svg xmlns="http://www.w3.org/2000/svg" width="1024" height="1024" fill="none">
   <g clip-path="url(#a)">
      <path fill="#56595B" d="M512 1024c282.77 0 512-229.23 512-512S794.77 0 512 0 0 229.23 0 512s229.23 512 512 512Z"/>
      <path fill="#fff" d="M482.87 473.5c-15.8-14.36-36.46-20.87-62.27-20.87-23.33 0-48.11 8-62.14 20.84a51.885 51.885 0 0 0-16.9 38.43 51.112 51.112 0 0 0 16.9 38.56c15.11 13.59 37.75 20.92 62.14 20.92s47.57-7.24 62.27-20.92a53.52 53.52 0 0 0 16.67-38.56 51.327 51.327 0 0 0-16.67-38.4Zm-28.94 69.38c-8.39 8.36-20.39 12.84-33.34 12.84-12.85 0-25.1-4.58-33.39-12.84-7.93-7.9-12.18-19.1-12.18-31 0-11.9 4.2-23.12 12.18-31 8.28-8.21 20.58-12.76 33.39-12.76 12.81 0 25.06 4.59 33.34 12.76 8 7.92 12.21 19.09 12.21 31 .01 12.49-3.87 22.69-12.2 31h-.01Zm-211.58-90.2c-13 0-27.87 2.44-40.46 8.08-11.62 5.2-21.14 13.6-21.14 27.53a28.613 28.613 0 0 0 7.74 19.71c3.39 3.12 8.83 8.44 23.08 11.56 6.37 1.4 20 3.54 33.54 5s26.7 2.77 32.09 4.14c4.29 1.09 11.48 2.58 11.48 10.67s-7.58 10.52-8.9 11.05c-1.32.53-10.42 4.7-26.77 4.7-12.08 0-26.59-3.64-31.88-5.53-6.1-2.18-12.5-5.05-18.47-12.36a21.281 21.281 0 0 1-3.83-11.72H184V567h16.45v-5.61a2.35 2.35 0 0 1 3.56-2 129.7 129.7 0 0 0 24.07 7.79c8.65 1.81 14.22 3.11 25 3.11 17.54 0 27-2.86 33.48-4.73a58.523 58.523 0 0 0 19.88-9.84 27.292 27.292 0 0 0 10.65-21.87 30.618 30.618 0 0 0-8.61-21.51 37.554 37.554 0 0 0-10.66-7.26 78.207 78.207 0 0 0-13.09-4.58c-8.48-2.09-27.66-4.66-36.83-5.62-9.62-1-26.3-2.39-33-4.46-2-.63-6.14-2.59-6.14-7.38 0-3.41 1.88-6.29 5.61-8.63 5.91-3.71 17.84-6 30.28-6 14.71-.05 27.16 3.31 35.08 6.86a38.494 38.494 0 0 1 8.35 5 25.156 25.156 0 0 1 8.29 13.73h13.29v-36.13h-14.84v4.2c0 1.36-1.4 3.12-4 1.66-6.64-3.49-25.42-11-48.43-11.05m325.18 6.57 72.38 65.45-.74-44.06c-.07-5.78-1.14-8.19-7.37-8.19h-13.66v-13.18h61.89v13.18H666.8c-6.36 0-6.76 2-6.84 8.19l1.12 84.19h-21.2l-83.37-74.55v52.91c.07 5.75.34 8.46 6.26 8.46h14.86v13.18h-60.76v-13.18h14.21c5.31 0 5.1-5.07 5.1-8.76v-61.75c0-4-.56-8.68-8.89-8.68h-11.54v-13.2l51.82-.01Zm183.23 92.38a28.513 28.513 0 0 0 3.66-.23 4.542 4.542 0 0 0 2.85-2.53c.186-.939.28-1.893.28-2.85v-20.84c0-.5 0-.72-.89-1.83s-37.91-43.21-39.61-45.05c-2.1-2.3-5.79-5.84-11.4-5.84h-12.84v-13.2h72.58v13.17h-8.75c-2 0-3.37 1.92-1.64 4.06 0 0 24.42 29.26 24.65 29.57.23.31.42.39.73.1.31-.29 25-29.4 25.23-29.63a2.543 2.543 0 0 0 .228-2.733 2.54 2.54 0 0 0-2.388-1.347h-9v-13.19H854v13.19h-13.29c-4.82 0-6.78.89-10.41 5-1.66 1.88-39 44.62-40.05 45.78a2.816 2.816 0 0 0-.49 2V546c.001.957.094 1.911.28 2.85a4.54 4.54 0 0 0 2.85 2.53c1.204.156 2.417.233 3.63.23h13.59v13.19h-72.2v-13.19h12.89v.02Z"/>
   </g>
   <defs>
      <clipPath id="a">
         <path fill="#fff" d="M0 0h1024v1024H0z"/>
      </clipPath>
   </defs>
</svg>
